packages/ui-icons/src/Service-logos/24/eMotion.svg

<svg viewBox="0 0 32 32" fill="none" xmlns="http://www.w3.org/2000/svg">
<path d="M16 28C22.6274 28 28 22.6274 28 16C28 9.37258 22.6274 4 16 4C9.37258 4 4 9.37258 4 16C4 22.6274 9.37258 28 16 28Z" fill="#00B956"/>
<path fill-rule="evenodd" clip-rule="evenodd" d="M11.0016 19.1253C10.6653 18.8615 10.1737 18.9144 9.90423 19.2432C9.63441 19.5724 9.68819 20.0524 10.0248 20.3165C10.3608 20.5804 10.8524 20.5275 11.1222 20.1986C11.3923 19.8698 11.3382 19.3894 11.0016 19.1253Z" fill="#731982"/>
<path fill-rule="evenodd" clip-rule="evenodd" d="M12.1 20.4638C11.7637 20.1997 11.2721 20.2526 11.0026 20.5814C10.7324 20.9106 10.7865 21.3906 11.1232 21.6547C11.4592 21.9186 11.9508 21.866 12.2206 21.5368C12.4904 21.208 12.4366 20.7276 12.1 20.4638Z" fill="#731982"/>
<path fill-rule="evenodd" clip-rule="evenodd" d="M13.6816 21.2271C13.3449 20.9633 12.8537 21.0162 12.5838 21.345C12.314 21.6742 12.3681 22.1542 12.7044 22.4183C13.0408 22.6822 13.532 22.6293 13.8022 22.3004C14.072 21.9716 14.0179 21.4912 13.6816 21.2271Z" fill="white"/>
<path fill-rule="evenodd" clip-rule="evenodd" d="M14.1601 22.7558L14.4229 21.7907C14.9254 21.9272 15.4541 22 15.9998 22C19.3135 22 21.9998 19.3137 21.9998 16C21.9998 12.6863 19.3135 10 15.9998 10C12.686 10 9.99976 12.6863 9.99976 16C9.99976 16.8693 10.1846 17.6954 10.5172 18.4412L9.60342 18.848C9.21543 17.978 8.99976 17.0142 8.99976 16C8.99976 12.134 12.1338 9 15.9998 9C19.8657 9 22.9998 12.134 22.9998 16C22.9998 19.866 19.8657 23 15.9998 23C15.3631 23 14.7463 22.915 14.1601 22.7558Z" fill="white"/>
<path d="M13.6564 13.1254L12.8754 13.9608C12.9297 16.9153 15.3069 19.0684 18.3701 18.9529L19.1241 18.1243L17.3106 16.4874L16.6382 17.2006C15.7304 16.6965 15.2933 16.3252 14.8111 15.489L15.4428 14.7758L13.6564 13.1254Z" fill="white"/>
</svg>

<svg viewBox="0 0 32 32" fill="none" xmlns="http://www.w3.org/2000/svg"><path d="M16 28c6.627 0 12-5.373 12-12S22.627 4 16 4 4 9.373 4 16s5.373 12 12 12Z" fill="#00B956"/><path fill-rule="evenodd" clip-rule="evenodd" d="M11.002 19.125a.793.793 0 0 0-1.098.118c-.27.33-.216.81.12 1.074a.793.793 0 0 0 1.098-.118.752.752 0 0 0-.12-1.074ZM12.1 20.464a.792.792 0 0 0-1.097.117c-.27.33-.216.81.12 1.074a.792.792 0 0 0 1.098-.118.752.752 0 0 0-.121-1.073Z" fill="#731982"/><path fill-rule="evenodd" clip-rule="evenodd" d="M13.682 21.227a.793.793 0 0 0-1.098.118c-.27.33-.216.81.12 1.073a.793.793 0 0 0 1.098-.118.752.752 0 0 0-.12-1.073Z" fill="#fff"/><path fill-rule="evenodd" clip-rule="evenodd" d="m14.16 22.756.263-.965a6 6 0 1 0-3.906-3.35l-.914.407a7 7 0 1 1 4.557 3.908Z" fill="#fff"/><path d="m13.656 13.125-.78.836c.054 2.954 2.43 5.107 5.494 4.992l.754-.829-1.813-1.637-.673.714c-.908-.505-1.345-.876-1.827-1.712l.632-.713-1.787-1.65Z" fill="#fff"/></svg>
